icons/Train_2.svg

<svg width="24" height="24" viewBox="0 0 24 24" fill="none" xmlns="http://www.w3.org/2000/svg">
<path fill-rule="evenodd" clip-rule="evenodd" d="M11.9999,5.25c0.0001,0 0.0001,0 0.0001,0h4.6132c-0.1483,-0.14936 -0.3265,-0.29907 -0.5381,-0.44456c-0.8527,-0.58619 -2.1974,-1.05543 -4.0751,-1.05544c-1.9209,0 -3.2649,0.36241 -4.10256,0.88589c-0.29863,0.18662 -0.53311,0.39271 -0.71011,0.61411zM6.74996,6.75v2.59294c0.35731,0.0452 0.84025,0.1032 1.39107,0.16118c0.94506,0.09948 2.07507,0.19729 3.10897,0.23232v-2.29188v-0.69456zM12.75,6.75v0.69453v2.29192c1.034,-0.03504 2.1639,-0.13285 3.109,-0.23233c0.5507,-0.05797 1.0336,-0.11596 1.3909,-0.16117l0.0001,-2.59295zM18.75,6.49976l-0.0001,3.48421c0.0003,0.01136 0.0003,0.02263 0,0.03393v0.1401l0.0001,5.3417c0,0.3789 -0.1795,0.6758 -0.3976,0.8789c-0.2033,0.1895 -0.4541,0.3139 -0.6862,0.4013c-0.45,0.1692 -1.0258,0.2695 -1.6186,0.334l3.09,4.9915c0.218,0.3522 0.1093,0.8144 -0.2429,1.0324c-0.3522,0.2181 -0.8145,0.1093 -1.0325,-0.2429l-0.5541,-0.8951h-10.61636l-0.55412,0.8951c-0.21802,0.3522 -0.68027,0.461 -1.03246,0.2429c-0.35219,-0.218 -0.46096,-0.6802 -0.24294,-1.0324l3.08993,-4.9915c-0.59275,-0.0645 -1.16848,-0.1648 -1.61842,-0.334c-0.2321,-0.0874 -0.48288,-0.2118 -0.68624,-0.4013c-0.21803,-0.2031 -0.39754,-0.5 -0.39753,-0.8788v-5.4917v-0.01435v-3.49399c0,-1.29075 0.66194,-2.39186 1.85254,-3.13591c1.16235,-0.72639 2.8184,-1.11385 4.8975,-1.11385c2.1222,0.00001 3.7776,0.53065 4.9248,1.31934c1.1276,0.77516 1.8252,1.85374 1.8252,2.93042zM12,11.25c-1.2901,0 -2.82132,-0.1284 -4.016,-0.2541c-0.47159,-0.0497 -0.89435,-0.0993 -1.23404,-0.1413v4.4737c0.02962,0.0145 0.06659,0.0306 0.11192,0.0476c0.28142,0.1059 0.72735,0.1921 1.31017,0.2529c1.15148,0.1201 2.60935,0.121 3.82795,0.121c1.2185,0 2.6764,-0.0009 3.8279,-0.121c0.5828,-0.0608 1.0287,-0.147 1.3102,-0.2529c0.0453,-0.017 0.0822,-0.0331 0.1118,-0.0476v-4.4737c-0.3396,0.042 -0.7624,0.0916 -1.2339,0.1413c-1.1946,0.1257 -2.7259,0.2541 -4.016,0.2541zM14.3513,17.2235c-0.8074,0.0263 -1.6266,0.0263 -2.3291,0.0263v0h-0.0222h-0.0223v0c-0.7025,0 -1.5218,0 -2.32924,-0.0263l-0.48058,0.7763h5.66402zM8.49994,13.25c0.55228,0 1,0.4477 1,1c0,0.5523 -0.44772,1 -1,1c-0.55229,0 -1,-0.4477 -1,-1c0,-0.5523 0.44771,-1 1,-1zM15.4999,15.25c-0.5522,0 -1,-0.4477 -1,-1c0,-0.5523 0.4478,-1 1,-1c0.5523,0 1,0.4477 1,1c0,0.5523 -0.4477,1 -1,1zM8.23933,19.4998l-0.61904,1h8.75921l-0.619,-1z" fill="#002B51"/>
</svg>

<svg width="24" height="24" viewBox="0 0 24 24" fill="none" xmlns="http://www.w3.org/2000/svg">
<path fill-rule="evenodd" clip-rule="evenodd" d="M7.18733 5.25C7.36433 5.0286 7.59881 4.82251 7.89744 4.63589C8.7351 4.11241 10.0791 3.75 12 3.75C13.8777 3.75001 15.2224 4.21925 16.0751 4.80544C16.2867 4.95093 16.4649 5.10064 16.6132 5.25H12C12 5.25 12 5.25 11.9999 5.25H7.18733ZM6.74996 6.75V9.34294C7.10727 9.38814 7.59021 9.44614 8.14103 9.50412C9.08609 9.6036 10.2161 9.70141 11.25 9.73644L11.25 7.44456L11.25 6.75H6.74996ZM12.75 6.75L12.75 7.44453L12.75 9.73645C13.784 9.70141 14.9139 9.6036 15.859 9.50412C16.4097 9.44615 16.8926 9.38816 17.2499 9.34295L17.25 6.75H12.75ZM18.75 6.49976L18.7499 9.98397C18.7502 9.99533 18.7502 10.0066 18.7499 10.0179L18.7499 10.158L18.75 15.4997C18.75 15.8786 18.5705 16.1755 18.3524 16.3786C18.1491 16.5681 17.8983 16.6925 17.6662 16.7799C17.2162 16.9491 16.6404 17.0494 16.0476 17.1139L19.1376 22.1054C19.3556 22.4576 19.2469 22.9198 18.8947 23.1378C18.5425 23.3559 18.0802 23.2471 17.8622 22.8949L17.3081 21.9998H6.69174L6.13762 22.8949C5.9196 23.2471 5.45735 23.3559 5.10516 23.1378C4.75297 22.9198 4.6442 22.4576 4.86222 22.1054L7.95215 17.1139C7.3594 17.0494 6.78367 16.9491 6.33373 16.7799C6.10163 16.6925 5.85085 16.5681 5.64749 16.3786C5.42946 16.1755 5.24995 15.8786 5.24996 15.4998V10.0081V9.99375V6.49976C5.24996 5.20901 5.9119 4.1079 7.1025 3.36385C8.26485 2.63746 9.9209 2.25 12 2.25C14.1222 2.25001 15.7776 2.78065 16.9248 3.56934C18.0524 4.3445 18.75 5.42308 18.75 6.49976ZM16.016 10.9959C16.4875 10.9462 16.9103 10.8966 17.2499 10.8546L17.2499 15.3283C17.2203 15.3428 17.1834 15.3589 17.1381 15.3759C16.8566 15.4818 16.4107 15.568 15.8279 15.6288C14.6764 15.7489 13.2185 15.7498 12 15.7498C10.7814 15.7498 9.32353 15.7489 8.17205 15.6288C7.58923 15.568 7.1433 15.4818 6.86188 15.3759C6.81655 15.3589 6.77958 15.3428 6.74996 15.3283V10.8546C7.08965 10.8966 7.51241 10.9462 7.984 10.9959C9.17868 11.1216 10.7099 11.25 12 11.25C13.2901 11.25 14.8214 11.1216 16.016 10.9959ZM14.3513 17.2235C13.5439 17.2498 12.7247 17.2498 12.0222 17.2498H12.0222H12H11.9777H11.9777C11.2752 17.2498 10.4559 17.2498 9.64846 17.2235L9.16788 17.9998H14.8319L14.3513 17.2235ZM8.49994 13.25C9.05222 13.25 9.49994 13.6977 9.49994 14.25C9.49994 14.8023 9.05222 15.25 8.49994 15.25C7.94765 15.25 7.49994 14.8023 7.49994 14.25C7.49994 13.6977 7.94765 13.25 8.49994 13.25ZM16.4999 14.25C16.4999 13.6977 16.0522 13.25 15.4999 13.25C14.9477 13.25 14.4999 13.6977 14.4999 14.25C14.4999 14.8023 14.9477 15.25 15.4999 15.25C16.0522 15.25 16.4999 14.8023 16.4999 14.25ZM8.23933 19.4998L7.62029 20.4998H16.3795L15.7605 19.4998H8.23933Z" fill="#002B51"/>
</svg>
